static/images/upgrades/cc-discover.svg

<svg height="100" viewBox="0 0 160 100" width="160" xmlns="http://www.w3.org/2000/svg"><g fill="none" fill-rule="evenodd"><path d="m148 .00000101c-8 .00000076-92.6992188-.00000261-140 0-4 .00000022-8 4-8 8v79.99999999c-.00000046 8 4 12 12 12 44.6232096 0 128 .000001 136 0 8 0 12-4 12-12v-76c0-7.99999999-4-11.99999999-12-11.99999999zm0 0" fill="#f4f4f4"/><path d="m49.5429687 100.000001c42.9860256 0 92.3909303.000001 98.4570313 0 8 0 12-4 12-12v-47.5712901s-23.84082 41.9746094-110.4570313 59.5712901zm0 0" fill="#d97b16"/><path d="m52.0384262 48.9208157h1.437821l4.4503981 6.6413634h.0228226v-6.6413634h1.0954826v8.0791843h-1.3921759l-4.4960432-6.6413634h-.0228226v6.6413634h-1.0954826zm9.0833767 0h5.2149537v1.027015h-4.1194711v2.4077795h3.8341892v1.0270149h-3.8341892v2.5903599h4.3248741v1.027015h-5.4203567zm8.6611595 1.027015h-2.6017712v-1.027015h6.299025v1.027015h-2.6017712v7.0521693h-1.0954826zm3.8341891-1.027015h1.1411278l1.7801592 6.4587829h.0228226l1.9056833-6.4587829h1.2552405l1.9056833 6.4587829h.0228225l1.7801593-6.4587829h1.1411277l-2.3507231 8.0791843h-1.152539l-1.9627397-6.5957183h-.0228226l-1.9513284 6.5957183h-1.152539zm15.7133288 8.2845873c-.616212 0-1.1829665-.1084061-1.7002803-.3252214-.5173138-.2168154-.9604473-.5154075-1.3294138-.8957853s-.6580493-.8292169-.8672571-1.3465307-.3138101-1.0764608-.3138101-1.6774578c0-.6009969.1046023-1.1601439.3138101-1.6774577s.4982906-.9661529.8672571-1.3465307.8121-.6789699 1.3294138-.8957853c.5173138-.2168153 1.0840683-.3252214 1.7002803-.3252214.6162121 0 1.1829665.1084061 1.7002803.3252214.5173139.2168154.9604474.5154075 1.3294138.8957853.3689665.3803778.6580493.8292169.8672571 1.3465307s.3138101 1.0764608.3138101 1.6774577c0 .600997-.1046023 1.160144-.3138101 1.6774578s-.4982906.9661529-.8672571 1.3465307c-.3689664.3803778-.8120999.6789699-1.3294138.8957853-.5173138.2168153-1.0840682.3252214-1.7002803.3252214zm0-1.027015c.464061 0 .8824703-.0855837 1.2552405-.2567537.3727703-.17117.6922828-.4012951.9585473-.6903823.2662645-.2890871.4716654-.6295201.616209-1.0213093.1445436-.3917891.2168143-.8082966.2168143-1.2495349 0-.4412382-.0722707-.8577457-.2168143-1.2495348-.1445436-.3917892-.3499445-.7322222-.616209-1.0213093-.2662645-.2890872-.585777-.5192123-.9585473-.6903823-.3727702-.17117-.7911795-.2567537-1.2552405-.2567537-.4640609 0-.8824702.0855837-1.2552405.2567537-.3727702.17117-.6922828.4012951-.9585473.6903823-.2662644.2890871-.4716654.6295201-.6162089 1.0213093-.1445436.3917891-.2168143.8082966-.2168143 1.2495348 0 .4412383.0722707.8577458.2168143 1.2495349.1445435.3917892.3499445.7322222.6162089 1.0213093.2662645.2890872.5857771.5192123.9585473.6903823.3727703.17117.7911796.2567537 1.2552405.2567537zm5.7855176-7.2575723h2.841408c.5173139 0 .9433306.0703688 1.2780631.2111086s.5990911.3195147.793084.5363301c.193992.2168153.329025.4602535.4051.7303217.076076.2700682.114113.5306231.114113.7816725 0 .2586569-.045645.5078006-.136935.7474387-.091291.239638-.22252.4564501-.39369.6504428-.1711695.1939926-.3803742.3575526-.6276198.4906849-.2472455.1331322-.5230153.2149122-.8273176.2453424l2.2936664 3.6858426h-1.3693529l-2.0540299-3.5603185h-1.2210067v3.5603185h-1.0954826zm1.0954826 3.5603185h1.4378209c.2130116 0 .4241181-.0171167.6333259-.0513507s.3955902-.0969954.5591526-.1882861c.1635625-.0912907.2947909-.2225191.3936891-.3936891s.1483466-.3936877.1483466-.6675597-.0494484-.4963897-.1483466-.6675597-.2301266-.3023984-.3936891-.3936891c-.1635624-.0912907-.3499448-.1540521-.5591526-.1882861s-.4203143-.0513507-.6333259-.0513507h-1.4378209zm5.8768075-3.5603185h1.095483v3.4918508h.09129l3.57173-3.4918508h1.529111l-3.902657 3.7314877 4.165116 4.3476966h-1.597578l-3.765722-4.0395922h-.09129v4.0395922h-1.095483zm0 0" fill="#000"/><path d="m14.1335 23.884h7.533c1.2600063 0 2.4749942.1934981 3.645.5805 1.1700059.3870019 2.2049955.976496 3.105 1.7685s1.6199973 1.786494 2.16 2.9835.81 2.6054919.81 4.2255c0 1.6380082-.3104969 3.055494-.9315 4.2525s-1.4219951 2.1869961-2.403 2.97-2.069994 1.3679981-3.267 1.755-2.3714942.5805-3.5235.5805h-7.128zm5.94 16.038c1.0620053 0 2.0654953-.1214988 3.0105-.3645s1.7684965-.6209974 2.4705-1.134 1.255498-1.1789959 1.6605-1.998.6075-1.8134941.6075-2.9835c0-1.1520058-.1799982-2.1419959-.54-2.97s-.8594968-1.4984974-1.4985-2.0115-1.3949956-.8909988-2.268-1.134-1.8314948-.3645-2.8755-.3645h-3.105v12.96zm14.472-16.038h3.402v19.116h-3.402zm16.956 4.104c-.3600018-.5220026-.841497-.9044988-1.4445-1.1475s-1.2374967-.3645-1.9035-.3645c-.396002 0-.7784982.0449996-1.1475.135-.3690018.0900005-.7019985.233999-.999.432s-.5354991.4544984-.7155.7695-.27.6884978-.27 1.1205c0 .6480032.2249977 1.1429983.675 1.485.4500022.3420017 1.0079967.6389987 1.674.891s1.394996.4949988 2.187.729 1.5209967.5579979 2.187.972 1.2239977.9629966 1.674 1.647c.4500022.6840034.675 1.5929943.675 2.727 0 1.0260051-.1889981 1.9214962-.567 2.6865s-.8864968 1.3994975-1.5255 1.9035-1.3814958.8819987-2.2275 1.134-1.7369953.378-2.673.378c-1.1880059 0-2.3309945-.197998-3.429-.594s-2.042996-1.0619953-2.835-1.998l2.565-2.484c.4140021.6300032.9584966 1.1204982 1.6335 1.4715s1.3904962.5265 2.1465.5265c.396002 0 .791998-.0539995 1.188-.162s.7559984-.2699989 1.08-.486.584999-.4904983.783-.8235.297-.7154978.297-1.1475c0-.7020035-.2249978-1.2419981-.675-1.62-.4500023-.3780019-1.0079967-.6974987-1.674-.9585s-1.394996-.5084988-2.187-.7425-1.5209967-.553498-2.187-.9585-1.2239978-.9449966-1.674-1.62c-.4500023-.6750034-.675-1.5794943-.675-2.7135 0-.9900049.202498-1.8449964.6075-2.565s.9359967-1.3184976 1.593-1.7955 1.4084958-.8324988 2.2545-1.0665 1.7099956-.351 2.592-.351c1.008005 0 1.9844953.1529985 2.9295.459s1.7954962.8099965 2.5515 1.512c0 0-.7560038-.7020035 0 0zm19.251.378c-.7020035-.7560038-1.3814967-1.2599987-2.0385-1.512s-1.3184967-.378-1.9845-.378c-.9900049 0-1.885496.1754982-2.6865.5265s-1.4894971.8369969-2.0655 1.458-1.0214984 1.3454959-1.3365 2.1735-.4725 1.7189952-.4725 2.673c0 1.0260051.1574984 1.9709957.4725 2.835s.7604971 1.6109969 1.3365 2.241c.5760029.6300032 1.264496 1.1249982 2.0655 1.485s1.6964951.54 2.6865.54c.7740039 0 1.5254964-.1844982 2.2545-.5535s1.4084969-.9584959 2.0385-1.7685l2.808 1.998c-.8640043 1.1880059-1.9169938 2.0519973-3.159 2.592s-2.564993.81-3.969.81c-1.4760074 0-2.8304938-.2384976-4.0635-.7155s-2.2949955-1.1519956-3.186-2.025-1.5884975-1.9214939-2.0925-3.1455-.756-2.5829925-.756-4.077c0-1.5300076.2519975-2.9204937.756-4.1715s1.2014955-2.3174956 2.0925-3.1995 1.9529938-1.5614976 3.186-2.0385 2.5874926-.7155 4.0635-.7155c1.2960065 0 2.4974945.2294977 3.6045.6885s2.1374952 1.2374945 3.0915 2.3355c0 0-.9540048-1.0980055 0 0zm25.65-4.482h3.915l5.211 14.445 5.373-14.445h3.672l-7.722 19.116h-2.943zm20.223 0h12.663v3.078h-9.261v4.698h8.775v3.078h-8.775v5.184h9.747v3.078h-13.149zm16.497 0h6.642c.918005 0 1.804496.0854991 2.6595.2565s1.615497.4634979 2.2815.8775 1.196998.9719965 1.593 1.674.594 1.5929946.594 2.673c0 1.3860069-.382496 2.5469953-1.1475 3.483s-1.858493 1.502999-3.2805 1.701l5.076 8.451h-4.104l-4.428-8.1h-2.484v8.1h-3.402zm6.048 8.1c.486002 0 .971998-.0224998 1.458-.0675s.931498-.1529991 1.3365-.324.733499-.4319982.9855-.783.378-.8414968.378-1.4715c0-.5580028-.116999-1.0079983-.351-1.35s-.539998-.5984991-.918-.7695-.796498-.2834997-1.2555-.3375-.904498-.081-1.3365-.081h-2.943v5.184zm0 0" fill="#000"/><circle cx="86.05" cy="33.45" fill="#d97b16" r="10.05"/></g></svg>

<?xml version="1.0" ?><svg height="100px" version="1.1" viewBox="0 0 160 100" width="160px" xmlns="http://www.w3.org/2000/svg" xmlns:sketch="http://www.bohemiancoding.com/sketch/ns" xmlns:xlink="http://www.w3.org/1999/xlink"><title/><defs/><g fill="none" fill-rule="evenodd" id="Page-1" stroke="none" stroke-width="1"><g id="DISCOVER"><path d="M148,1.01146687e-06 C140,1.76644588e-06 55.3007812,-1.60318373e-06 8,1.01146687e-06 C4,1.23257532e-06 -1.84741111e-13,4.00000101 1.42108547e-14,8.00000101 L1.42108547e-14,88.000001 C-4.62839855e-07,96.000001 4,100.000001 12,100.000001 C56.6232096,100.000001 140,100.000002 148,100.000001 C156,100.000001 160,96.000001 160,88.000001 L160,12.000001 C160,4.00000101 156,1.01146687e-06 148,1.01146687e-06 Z M148,1.01146687e-06" fill="#F4F4F4" id="Rectangle-1"/><path d="M49.5429687,100.000001 C92.5289943,100.000001 141.933899,100.000002 148,100.000001 C156,100.000001 160,96.000001 160,88.000001 L160,40.4287109 C160,40.4287109 136.15918,82.4033203 49.5429687,100.000001 Z M49.5429687,100.000001" fill="#D97B16" id="Rectangle-1-copy"/><path d="M52.0384262,48.9208157 L53.4762472,48.9208157 L57.9266453,55.5621791 L57.9494679,55.5621791 L57.9494679,48.9208157 L59.0449505,48.9208157 L59.0449505,57 L57.6527746,57 L53.1567314,50.3586366 L53.1339088,50.3586366 L53.1339088,57 L52.0384262,57 L52.0384262,48.9208157 Z M61.1218029,48.9208157 L66.3367566,48.9208157 L66.3367566,49.9478307 L62.2172855,49.9478307 L62.2172855,52.3556102 L66.0514747,52.3556102 L66.0514747,53.3826251 L62.2172855,53.3826251 L62.2172855,55.972985 L66.5421596,55.972985 L66.5421596,57 L61.1218029,57 L61.1218029,48.9208157 Z M69.7829624,49.9478307 L67.1811912,49.9478307 L67.1811912,48.9208157 L73.4802162,48.9208157 L73.4802162,49.9478307 L70.878445,49.9478307 L70.878445,57 L69.7829624,57 L69.7829624,49.9478307 Z M73.6171515,48.9208157 L74.7582793,48.9208157 L76.5384385,55.3795986 L76.5612611,55.3795986 L78.4669444,48.9208157 L79.7221849,48.9208157 L81.6278682,55.3795986 L81.6506907,55.3795986 L83.43085,48.9208157 L84.5719777,48.9208157 L82.2212546,57 L81.0687156,57 L79.1059759,50.4042817 L79.0831533,50.4042817 L77.1318249,57 L75.9792859,57 L73.6171515,48.9208157 Z M89.3304803,57.205403 C88.7142683,57.205403 88.1475138,57.0969969 87.6302,56.8801816 C87.1128862,56.6633662 86.6697527,56.3647741 86.3007862,55.9843963 C85.9318197,55.6040185 85.6427369,55.1551794 85.4335291,54.6378656 C85.2243213,54.1205518 85.119719,53.5614048 85.119719,52.9604078 C85.119719,52.3594109 85.2243213,51.8002639 85.4335291,51.2829501 C85.6427369,50.7656363 85.9318197,50.3167972 86.3007862,49.9364194 C86.6697527,49.5560416 87.1128862,49.2574495 87.6302,49.0406341 C88.1475138,48.8238188 88.7142683,48.7154127 89.3304803,48.7154127 C89.9466924,48.7154127 90.5134468,48.8238188 91.0307606,49.0406341 C91.5480745,49.2574495 91.991208,49.5560416 92.3601744,49.9364194 C92.7291409,50.3167972 93.0182237,50.7656363 93.2274315,51.2829501 C93.4366393,51.8002639 93.5412416,52.3594109 93.5412416,52.9604078 C93.5412416,53.5614048 93.4366393,54.1205518 93.2274315,54.6378656 C93.0182237,55.1551794 92.7291409,55.6040185 92.3601744,55.9843963 C91.991208,56.3647741 91.5480745,56.6633662 91.0307606,56.8801816 C90.5134468,57.0969969 89.9466924,57.205403 89.3304803,57.205403 Z M89.3304803,56.178388 C89.7945413,56.178388 90.2129506,56.0928043 90.5857208,55.9216343 C90.9584911,55.7504643 91.2780036,55.5203392 91.5442681,55.231252 C91.8105326,54.9421649 92.0159335,54.6017319 92.1604771,54.2099427 C92.3050207,53.8181536 92.3772914,53.4016461 92.3772914,52.9604078 C92.3772914,52.5191696 92.3050207,52.1026621 92.1604771,51.710873 C92.0159335,51.3190838 91.8105326,50.9786508 91.5442681,50.6895637 C91.2780036,50.4004765 90.9584911,50.1703514 90.5857208,49.9991814 C90.2129506,49.8280114 89.7945413,49.7424277 89.3304803,49.7424277 C88.8664194,49.7424277 88.4480101,49.8280114 88.0752398,49.9991814 C87.7024696,50.1703514 87.382957,50.4004765 87.1166925,50.6895637 C86.8504281,50.9786508 86.6450271,51.3190838 86.5004836,51.710873 C86.35594,52.1026621 86.2836693,52.5191696 86.2836693,52.9604078 C86.2836693,53.4016461 86.35594,53.8181536 86.5004836,54.2099427 C86.6450271,54.6017319 86.8504281,54.9421649 87.1166925,55.231252 C87.382957,55.5203392 87.7024696,55.7504643 88.0752398,55.9216343 C88.4480101,56.0928043 88.8664194,56.178388 89.3304803,56.178388 C89.3304803,56.178388 88.8664194,56.178388 89.3304803,56.178388 Z M95.1159979,48.9208157 L97.9574059,48.9208157 C98.4747198,48.9208157 98.9007365,48.9911845 99.235469,49.1319243 C99.5702015,49.2726641 99.8345601,49.451439 100.028553,49.6682544 C100.222545,49.8850697 100.357578,50.1285079 100.433653,50.3985761 C100.509729,50.6686443 100.547766,50.9291992 100.547766,51.1802486 C100.547766,51.4389055 100.502121,51.6880492 100.410831,51.9276873 C100.31954,52.1673253 100.188311,52.3841374 100.017141,52.5781301 C99.8459715,52.7721227 99.6367668,52.9356827 99.3895212,53.068815 C99.1422757,53.2019472 98.8665059,53.2837272 98.5622036,53.3141574 L100.85587,57 L99.4865171,57 L97.4324872,53.4396815 L96.2114805,53.4396815 L96.2114805,57 L95.1159979,57 L95.1159979,48.9208157 Z M96.2114805,52.4811342 L97.6493014,52.4811342 C97.862313,52.4811342 98.0734195,52.4640175 98.2826273,52.4297835 C98.4918351,52.3955495 98.6782175,52.3327881 98.8417799,52.2414974 C99.0053424,52.1502067 99.1365708,52.0189783 99.235469,51.8478083 C99.3343672,51.6766383 99.3838156,51.4541206 99.3838156,51.1802486 C99.3838156,50.9063766 99.3343672,50.6838589 99.235469,50.5126889 C99.1365708,50.3415189 99.0053424,50.2102905 98.8417799,50.1189998 C98.6782175,50.0277091 98.4918351,49.9649477 98.2826273,49.9307137 C98.0734195,49.8964797 97.862313,49.879363 97.6493014,49.879363 L96.2114805,49.879363 L96.2114805,52.4811342 Z M102.088288,48.9208157 L103.183771,48.9208157 L103.183771,52.4126665 L103.275061,52.4126665 L106.846791,48.9208157 L108.375902,48.9208157 L104.473245,52.6523034 L108.638361,57 L107.040783,57 L103.275061,52.9604078 L103.183771,52.9604078 L103.183771,57 L102.088288,57 L102.088288,48.9208157 Z M102.088288,48.9208157" fill="#000000" id="NETWORK"/><path d="M14.1335,23.884 L21.6665,23.884 C22.9265063,23.884 24.1414942,24.0774981 25.3115,24.4645 C26.4815059,24.8515019 27.5164955,25.440996 28.4165,26.233 C29.3165045,27.025004 30.0364973,28.019494 30.5765,29.2165 C31.1165027,30.413506 31.3865,31.8219919 31.3865,33.442 C31.3865,35.0800082 31.0760031,36.497494 30.455,37.6945 C29.8339969,38.891506 29.0330049,39.8814961 28.052,40.6645 C27.0709951,41.4475039 25.982006,42.0324981 24.785,42.4195 C23.587994,42.8065019 22.4135058,43 21.2615,43 L14.1335,43 L14.1335,23.884 Z M20.0735,39.922 C21.1355053,39.922 22.1389953,39.8005012 23.084,39.5575 C24.0290047,39.3144988 24.8524965,38.9365026 25.5545,38.4235 C26.2565035,37.9104974 26.809998,37.2445041 27.215,36.4255 C27.620002,35.6064959 27.8225,34.6120059 27.8225,33.442 C27.8225,32.2899942 27.6425018,31.3000041 27.2825,30.472 C26.9224982,29.6439959 26.4230032,28.9735026 25.784,28.4605 C25.1449968,27.9474974 24.3890044,27.5695012 23.516,27.3265 C22.6429956,27.0834988 21.6845052,26.962 20.6405,26.962 L17.5355,26.962 L17.5355,39.922 L20.0735,39.922 Z M34.5455,23.884 L37.9475,23.884 L37.9475,43 L34.5455,43 L34.5455,23.884 Z M51.5015,27.988 C51.1414982,27.4659974 50.660003,27.0835012 50.057,26.8405 C49.453997,26.5974988 48.8195033,26.476 48.1535,26.476 C47.757498,26.476 47.3750018,26.5209996 47.006,26.611 C46.6369982,26.7010005 46.3040015,26.844999 46.007,27.043 C45.7099985,27.241001 45.4715009,27.4974984 45.2915,27.8125 C45.1114991,28.1275016 45.0215,28.5009978 45.0215,28.933 C45.0215,29.5810032 45.2464977,30.0759983 45.6965,30.418 C46.1465022,30.7600017 46.7044967,31.0569987 47.3705,31.309 C48.0365033,31.5610013 48.765496,31.8039988 49.5575,32.038 C50.349504,32.2720012 51.0784967,32.5959979 51.7445,33.01 C52.4105033,33.4240021 52.9684977,33.9729966 53.4185,34.657 C53.8685022,35.3410034 54.0935,36.2499943 54.0935,37.384 C54.0935,38.4100051 53.9045019,39.3054962 53.5265,40.0705 C53.1484981,40.8355038 52.6400032,41.4699975 52.001,41.974 C51.3619968,42.4780025 50.6195042,42.8559987 49.7735,43.108 C48.9274958,43.3600013 48.0365047,43.486 47.1005,43.486 C45.9124941,43.486 44.7695055,43.288002 43.6715,42.892 C42.5734945,42.495998 41.628504,41.8300047 40.8365,40.894 L43.4015,38.41 C43.8155021,39.0400032 44.3599966,39.5304982 45.035,39.8815 C45.7100034,40.2325018 46.4254962,40.408 47.1815,40.408 C47.577502,40.408 47.973498,40.3540005 48.3695,40.246 C48.765502,40.1379995 49.1254984,39.9760011 49.4495,39.76 C49.7735016,39.5439989 50.034499,39.2695017 50.2325,38.9365 C50.430501,38.6034983 50.5295,38.2210022 50.5295,37.789 C50.5295,37.0869965 50.3045022,36.5470019 49.8545,36.169 C49.4044977,35.7909981 48.8465033,35.4715013 48.1805,35.2105 C47.5144967,34.9494987 46.785504,34.7020012 45.9935,34.468 C45.201496,34.2339988 44.4725033,33.914502 43.8065,33.5095 C43.1404967,33.104498 42.5825022,32.5645034 42.1325,31.8895 C41.6824977,31.2144966 41.4575,30.3100057 41.4575,29.176 C41.4575,28.1859951 41.659998,27.3310036 42.065,26.611 C42.470002,25.8909964 43.0009967,25.2925024 43.658,24.8155 C44.3150033,24.3384976 45.0664958,23.9830012 45.9125,23.749 C46.7585042,23.5149988 47.6224956,23.398 48.5045,23.398 C49.512505,23.398 50.4889953,23.5509985 51.434,23.857 C52.3790047,24.1630015 53.2294962,24.6669965 53.9855,25.369 C53.9855,25.369 53.2294962,24.6669965 53.9855,25.369 L51.5015,27.988 Z M70.7525,28.366 C70.0504965,27.6099962 69.3710033,27.1060013 68.714,26.854 C68.0569967,26.6019987 67.3955033,26.476 66.7295,26.476 C65.7394951,26.476 64.844004,26.6514982 64.043,27.0025 C63.241996,27.3535018 62.5535029,27.8394969 61.9775,28.4605 C61.4014971,29.0815031 60.9560016,29.8059959 60.641,30.634 C60.3259984,31.4620041 60.1685,32.3529952 60.1685,33.307 C60.1685,34.3330051 60.3259984,35.2779957 60.641,36.142 C60.9560016,37.0060043 61.4014971,37.7529969 61.9775,38.383 C62.5535029,39.0130032 63.241996,39.5079982 64.043,39.868 C64.844004,40.2280018 65.7394951,40.408 66.7295,40.408 C67.5035039,40.408 68.2549964,40.2235018 68.984,39.8545 C69.7130036,39.4854982 70.3924969,38.8960041 71.0225,38.086 L73.8305,40.084 C72.9664957,41.2720059 71.9135062,42.1359973 70.6715,42.676 C69.4294938,43.2160027 68.106507,43.486 66.7025,43.486 C65.2264926,43.486 63.8720062,43.2475024 62.639,42.7705 C61.4059938,42.2934976 60.3440045,41.6185044 59.453,40.7455 C58.5619955,39.8724956 57.8645025,38.8240061 57.3605,37.6 C56.8564975,36.3759939 56.6045,35.0170075 56.6045,33.523 C56.6045,31.9929924 56.8564975,30.6025063 57.3605,29.3515 C57.8645025,28.1004937 58.5619955,27.0340044 59.453,26.152 C60.3440045,25.2699956 61.4059938,24.5905024 62.639,24.1135 C63.8720062,23.6364976 65.2264926,23.398 66.7025,23.398 C67.9985065,23.398 69.1999945,23.6274977 70.307,24.0865 C71.4140055,24.5455023 72.4444952,25.3239945 73.3985,26.422 C73.3985,26.422 72.4444952,25.3239945 73.3985,26.422 L70.7525,28.366 Z M96.4025,23.884 L100.3175,23.884 L105.5285,38.329 L110.9015,23.884 L114.5735,23.884 L106.8515,43 L103.9085,43 L96.4025,23.884 Z M116.6255,23.884 L129.2885,23.884 L129.2885,26.962 L120.0275,26.962 L120.0275,31.66 L128.8025,31.66 L128.8025,34.738 L120.0275,34.738 L120.0275,39.922 L129.7745,39.922 L129.7745,43 L116.6255,43 L116.6255,23.884 Z M133.1225,23.884 L139.7645,23.884 C140.682505,23.884 141.568996,23.9694991 142.424,24.1405 C143.279004,24.3115009 144.039497,24.6039979 144.7055,25.018 C145.371503,25.4320021 145.902498,25.9899965 146.2985,26.692 C146.694502,27.3940035 146.8925,28.2849946 146.8925,29.365 C146.8925,30.7510069 146.510004,31.9119953 145.745,32.848 C144.979996,33.7840047 143.886507,34.350999 142.4645,34.549 L147.5405,43 L143.4365,43 L139.0085,34.9 L136.5245,34.9 L136.5245,43 L133.1225,43 L133.1225,23.884 Z M139.1705,31.984 C139.656502,31.984 140.142498,31.9615002 140.6285,31.9165 C141.114502,31.8714998 141.559998,31.7635009 141.965,31.5925 C142.370002,31.4214991 142.698499,31.1605018 142.9505,30.8095 C143.202501,30.4584982 143.3285,29.9680032 143.3285,29.338 C143.3285,28.7799972 143.211501,28.3300017 142.9775,27.988 C142.743499,27.6459983 142.437502,27.3895009 142.0595,27.2185 C141.681498,27.0474991 141.263002,26.9350003 140.804,26.881 C140.344998,26.8269997 139.899502,26.8 139.4675,26.8 L136.5245,26.8 L136.5245,31.984 L139.1705,31.984 Z M139.1705,31.984" fill="#000000"/><circle cx="86.05" cy="33.45" d="M86.05,43.5 C91.600462,43.5 96.1,39.000462 96.1,33.45 C96.1,27.899538 91.600462,23.4 86.05,23.4 C80.499538,23.4 76,27.899538 76,33.45 C76,39.000462 80.499538,43.5 86.05,43.5 Z M86.05,43.5" fill="#D97B16" id="Oval-1" r="10.05"/></g></g></svg>
